src/fileIcons/FileIconUndefined/FileIconUndefined_size_m.svg

<svg viewBox="0 0 30 40" xmlns="http://www.w3.org/2000/svg">
  <path
    d="M28 0H2C0.89543 0 0 0.89543 0 2V38C0 39.1046 0.89543 40 2 40H28C29.1046 40 30 39.1046 30 38V2C30 0.89543 29.1046 0 28 0Z"
  />
  <path
    d="M19 16.64C19 17.2 18.9733 17.62 18.92 17.9C18.8667 18.1667 18.7467 18.44 18.56 18.72L16.04 21V23H14V20.5L16.92 17.58C16.9733 17.3933 17 17.14 17 16.82V16.3C17 15.8867 16.88 15.5667 16.64 15.34C16.4 15.1133 16.0333 15 15.54 15H13V13H15.3C17.54 13 19 14 19 16V16.64ZM16 25V27H14V25H16Z"
    fill="#fff"
  />
</svg>

<svg viewBox="0 0 30 40" xmlns="http://www.w3.org/2000/svg">
  <path d="M28 0H2a2 2 0 00-2 2v36a2 2 0 002 2h26a2 2 0 002-2V2a2 2 0 00-2-2z" />
  <path
    fill="#fff"
    d="M19 16.64c0 .56-.027.98-.08 1.26-.053.267-.173.54-.36.82L16.04 21v2H14v-2.5l2.92-2.92c.053-.187.08-.44.08-.76v-.52c0-.413-.12-.733-.36-.96-.24-.227-.607-.34-1.1-.34H13v-2h2.3c2.24 0 3.7 1 3.7 3v.64zM16 25v2h-2v-2h2z"
  />
</svg>
